!!!!SEGMENT: 074-1-G-008.krn
!!!COM: Fryderyk Chopin
!!!OTL: Sliczny chopiec
!!!OPS: op. 74
!!!PTL: Zbi贸r piew贸w polskich z towarzyszeniem fortepianu
!!!PPR: Gebethner
!!!PPP: Warsaw
!!!AGN: Song
!!!NIFC-rismID: 300605194
!!!NIFC-shelfmark: PL-Wbfc 963/n
!!!OMD: Allegro moderato.
!!!OMD: M. M. [quarter] = 96.
**kern	**kern	**fing	**dynam	**kern	**text	**dynam
*part2	*part2	*	*part2	*part1	*	*part1
*staff3	*staff2	*	*	*staff1	*	*
*I"PIANO.	*I"PIANO.	*	*	*I"CANTO.	*	*
*clefF4	*clefG2	*	*	*clefG2	*	*
*k[f#c#]	*k[f#c#]	*	*	*k[f#c#]	*	*
*D:	*D:	*	*D:	*	*	*
*M3/4	*M3/4	*	*	*M3/4	*	*
*	*	*	*	*	*	*
4r	4a	.	.	4r	.	.
!LO:TX:t=	!LO:TX:a:t=	!	!	!LO:TX:a:t=	!	!
=1||	=1||	=1||	=1||	=1||	=1||	=1||
!	!	!	!LO:DY:rj	!	!	!
4AA	(8bbL	5	f	2.rdd	.	.
.	8aa	4	.	.	.	.
4g 4e 4A	8gg	5	.	.	.	.
.	8cc#	.	.	.	.	.
4AA#X	8ff# 8g	.	.	.	.	.
.	8eeJ)	.	.	.	.	.
=2	=2	=2	=2	=2	=2	=2
4BB	(8ddL	.	.	2.rdd	.	.
.	8f#	.	.	.	.	.
4d 4B	8cc#	.	.	.	.	.
.	8b	.	.	.	.	.
4r	8a 8fn	.	.	.	.	.
.	8g#XJ)	.	.	.	.	.
=3	=3	=3	=3	=3	=3	=3
4AA	8bL 8f#X	.	.	2.rdd	.	.
.	8aT<	.	.	.	.	.
4f# 4d 4A	8g#X	.	.	.	.	.
.	8a	.	.	.	.	.
4c# 4A	8ee 8gn	.	.	.	.	.
.	8ff#J 8a	.	.	.	.	.
=4	=4	=4	=4	=4	=4	=4
*^	*	*	*	*	*	*
4rB	2.D	4dd 4f#	.	.	2.r	.	.
4A	.	4r	.	.	.	.	.
4A	.	4f#	.	.	.	.	.
*v	*v	*	*	*	*	*	*
=5	=5	=5	=5	=5	=5	=5
*	*	*	*	*	*^	*
*	*	*	*	*	*	*^	*
*ped	*	*	*	*	*	*	*	*
2.D	4r	.	mf	8.f#	Wznio-	W pro-	Gdy	.
.	.	.	.	16e#X	-sy	-gu	pl-	.
!	!	!	!	!	!	!	!	!LO:HP:a
.	4f# 4d 4A<	.	.	4f#	smu-	mru-	-sa-	<
*Xped	*	*	*	*	*	*	*	*
.	4f# 4d 4A<	.	.	4g	-ky	-gnie	-my	[
!!LO:LB:g=original
=6	=6	=6	=6	=6	=6	=6	=6	=6
*ped	*	*	*	*	*	*	*	*
2.C#\	4r	.	.	4a	i	o-	pod	.
.	4e 4A<	.	.	4.b/^>	mo-	-czy-	r-	.
.	4a 4e 4A<	.	.	.	.	.	.	.
*Xped	*	*	*	*	*	*	*	*
.	.	.	.	8a	-dy	-ma	-ce	.
=7	=7	=7	=7	=7	=7	=7	=7	=7
*	*^	*	*	*	*	*	*	*
8CnL<	4g/ 4e/	8A<L	.	.	8a	O!	Na	To	.
8AAJ	.	8cn<J	.	.	8ccn	nie	wskro	si	.
2BB\	4r	4rAyy	.	.	4.b	la-	ca-	led-	.
.	4b 4d#X 4A<	4rAyy	.	.	.	.	.	.	.
.	.	.	.	.	8f#	-da	-	-wie	.
*	*v	*v	*	*	*	*	*	*	*
=8	=8	=8	=8	=8	=8	=8	=8	=8
!	!	!	!	!LO:TX:t=P:note-head-side tuplet number:problem	!	!	!	!
4EE	4r	.	.	(12aL	u-	mnie	nie	.
.	.	.	.	12b	.	.	.	.
.	.	.	.	12aJ)	.	.	.	.
4E	4g 4e 4B	.	.	4.g	-ro-	i-	skr-	.
4E	4g 4d 4B-X^	.	.	.	.	.	.	.
.	.	.	.	8f#	dy	ma,	-c	.
=9	=9	=9	=9	=9	=9	=9	=9	=9
*^	*	*	*	*	*	*	*	*
!	!	!	!	!	!	!	!	!	!LO:HP:a
4rF	2.AA	4r	.	.	8.e	.	li-	.	<
.	.	.	.	.	16a	.	-czny	.	.
.	.	.	.	.	(<8qcc#/	.	.	.	.
4E\	.	4g 4c#yX 4A	.	.	4b/)	.	cho-piec	.	[
4E\	.	4g 4c# 4A	.	.	4a	.	.	.	.
*v	*v	*	*	*	*	*	*	*	*
=10	=10	=10	=10	=10	=10	=10	=10	=10
!	!	!	!	!	!	!	!	!LO:HP:a
*ped	*	*	*	*	*	*	*	*
2.D	4r	.	.	8g#X	.	cze-	.	<
.	.	.	.	8a	.	-go	.	[
!	!	!	!	!	!	!	!	!LO:DY:rj
!	!	!	!	!	!	!	!	!LO:DY:a
!	!	!	!LO:DY:rj	!	!	!	!	!
.	2f# 2d 2A<	.	sf	2dd	.	chcie?	.	sf
*Xped	*	*	*	*	*	*	*	*
.	.	.	.	.	.	.	.	.
!!LO:PB:g=original
=11	=11	=11	=11	=11	=11	=11	=11	=11
2AA\	4r	.	.	8.f#	.	Cza-	.	.
.	.	.	.	16g	.	-rny	.	.
.	(>4f# 4d 4A<	.	.	4a	.	w-	.	.
4AA\	4fn 4d 4G#X<	.	.	4b/	.	sik	.	.
=12	=12	=12	=12	=12	=12	=12	=12	=12
4AA	4e 4c# 4Gn<	.	.	8a	.	bia-	.	.
.	.	.	.	8e	.	-a	.	.
4DD	4d) 4F#<	.	.	4f#	.	pe!	.	.
4rGG	4a 4A<	.	.	4r	.	.	.	.
=13	=13	=13	=13	=13	=13	=13	=13	=13
2.C# 2.CC#	4r	.	.	8a	.	li-	.	.
.	.	.	.	8a	.	-czny	.	.
!	!	!	!LO:HP:a:t=cres-cendo.:ext=ud	!	!	!	!	!
!	!LO:TX:a:t=cres_cendo.:problem:dynamics with line extensions	!	!	!	!	!	!	!
.	4g 4e 4A<	.	<	4b/	.	cho-	.	.
.	4a 4g 4e 4A<	.	.	4a	.	-piec	.	.
*ped	*	*	*	*	*	*	*	*
=14	=14	=14	=14	=14	=14	=14	=14	=14
!	!	!	!	!	!	!	!	!LO:HP:a
2D 2DD	4r	.	[	8g#X	.	cze-	.	<
.	.	.	.	8a	.	-go	.	[
!	!	!	!	!	!	!	!	!LO:DY:rj
!	!	!	!	!	!	!	!	!LO:DY:a
!	!	!	!LO:DY:rj	!	!	!	!	!
.	4a 4f# 4d 4A<;	.	sf	[2ff#;	.	chcie?	.	sf
*Xped	*	*	*	*	*	*	*	*
4r	4r	.	.	.	.	.	.	.
=15	=15	=15	=15	=15	=15	=15	=15	=15
2.AA\	4r	.	.	8ff#L]	.	.	.	.
.	.	.	.	8eeJ	.	czar-	.	.
.	4f# 4d 4A<	.	.	8dd	.	.	.	.
.	.	.	.	8f#	.	-ny	.	.
!	!	!	!LO:HP:a:t=dimi-nuen-do.:ext=ud	!	!	!	!	!
!	!LO:TX:a:t=dimi _ nuen_do.:problem:dynamics with line extensions	!	!	!	!	!	!	!
.	4f# 4d 4A<	.	>	8cc#	.	w-	.	.
.	.	.	.	8b	.	sik	.	.
!!LO:LB:g=original
=16	=16	=16	=16	=16	=16	=16	=16	=16
4AA	4g 4c# 4A	.	.	8a	.	bia-	.	.
.	.	.	.	8c#	.	a	.	.
4D	4f# 4d 4A<	.	.	4d	.	.pe!	.	.
4BB	4r	.	]]	4r	.	.	.	.
=17	=17	=17	=17	=17	=17	=17	=17	=17
!	!	!	!LO:DY:a:rj	!LO:TX:t=P:note-head-side tuplet number:problem	!	!	!	!
2.E	4r	.	p	(12bL	Niech	Ka偶-	Co	.
.	.	.	.	12cc#J	.	.	.	.
.	.	.	.	12b)	si	-de	to	.
.	4e 4d	.	.	4a	sp贸-	s贸w-	b-	.
.	4e 4d	.	.	4b/	藕ni	-ko	-dzie,	.
=18	=18	=18	=18	=18	=18	=18	=18	=18
*^	*	*	*	*	*	*	*	*
4rA	2.AA	4r	.	.	4cc#	go-	co	och,	.
2E	.	4e 4c#	.	.	4.a	-dzi-	po-	da-	.
.	.	4e 4c#	.	.	.	.	.	.	.
.	.	.	.	.	8e	-n	-wie	-l茅y?	.
*v	*v	*	*	*	*	*	*	*	*
=19	=19	=19	=19	=19	=19	=19	=19	=19
2.EE	4r	.	.	8b	To	Lgnie	呕e-	.
.	.	.	.	8b	mi	mi	-by-	.
.	4e 4d 4F#<	.	.	4.a	t-	w ser-	-my	.
.	4e 4d 4G#X<	.	.	.	.	.	.	.
.	.	.	.	8b	-skno	-cu	si	.
=20	=20	=20	=20	=20	=20	=20	=20	=20
*^	*	*	*	*	*	*	*	*
*ped	*	*	*	*	*	*	*	*	*
4rAyy	2.AA/ 2.AAA/	4r	.	.	4cc#	a偶	i	po-	.
2E	.	2a 2e 2c# 2A	.	.	(8aL	gi-	w go-	-bra-	.
!	!	!LO:TX:a:t=riten-:dur=1q:ext=ud:problem:text with line extensions	!	!	!	!	!	!	!
.	.	.	.	.	8g#X	.	.	.	.
.	.	.	.	.	8gnJ)	.	.	.	.
*Xped	*	*	*	*	*	*	*	*	*
.	.	.	.	.	8f#	-n	-wie	-li!	.
*v	*v	*	*	*	*	*	*	*	*
!!LO:PB:g=original
=21	=21	=21	=21	=21	=21	=21	=21	=21
!	!LO:TX:a:B:t=tempo.	!	!	!	!	!	!	!
*ped	*	*	*	*	*	*	*	*
2.C#\	4r	.	.	8.e	.	licz-	.	.
!	!	!	!	!	!	!	!	!LO:DY:a
.	.	.	.	16a	.	-ny偶	.	.
.	.	.	.	(8qcc#/	.	.	.	.
.	4g 4e 4A<	.	.	4b/)	.	cho-	.	.
*Xped	*	*	*	*	*	*	*	*
.	4g 4e 4A<	.	.	4a	.	-piec	.	.
=22	=22	=22	=22	=22	=22	=22	=22	=22
*ped	*	*	*	*	*	*	*	*
2D	4r	.	.	8g#X	.	cze-	.	.
.	.	.	.	8a	.	-go-	.	.
!	!	!	!	!	!	!	!	!LO:DY:rj
!	!	!	!	!	!	!	!	!LO:DY:a
!	!	!	!LO:DY:rj	!	!	!	!	!
.	4f# 4d 4A<	.	sf	2dd	.	chcie?	.	sf
*Xped	*	*	*	*	*	*	*	*
4r	4r	.	.	.	.	.	.	.
=23	=23	=23	=23	=23	=23	=23	=23	=23
2AA	4r	.	.	8.f#	.	Czar-	.	.
.	.	.	.	16gn	.	-ny	.	.
.	(>4f# 4d 4A<	.	.	4a	.	w-	.	.
4AA\	4fn 4d 4G#X<	.	.	4b/	.	-sik	.	.
=24	=24	=24	=24	=24	=24	=24	=24	=24
4AA	4e 4c# 4Gn<	.	.	8a	.	bia-	.	.
.	.	.	.	8e	.	-a	.	.
4AA#X	4e 4c# 4F#<	.	.	4f#	.	pe!	.	.
4BB	4d 4B 4F#<)	.	.	4r	.	.	.	.
!!LO:LB:g=original
=25	=25	=25	=25	=25	=25	=25	=25	=25
*ped	*	*	*	*	*	*	*	*
2.C# 2.CC#	4r	.	.	8a	.	licz-	.	.
.	.	.	.	8a	.	-ny偶	.	.
.	4a 4g 4e 4A<	.	.	4b/	.	cho-	.	.
*Xped	*	*	*	*	*	*	*	*
.	4a 4g 4e 4A<	.	.	4a	.	-piec	.	.
=26	=26	=26	=26	=26	=26	=26	=26	=26
2Cn 2CCn	4r	.	.	8g#X	.	cze-	.	.
.	.	.	.	8a	.	-go	.	.
!LO:TX:a:t=rit.	!	!	!	!	!	!	!	!
.	4a 4f# 4e 4A<	.	.	[2ff#	.	chcie?_	.	.
4BB 4BBB	4b 4f# 4d#X 4B< 4A<^	.	.	.	.	.	.	.
=27	=27	=27	=27	=27	=27	=27	=27	=27
4EE\	4g#X 4dn 4B	.	.	8ff#L]	.	.	.	.
.	.	.	.	8eeJ	.	.	.	.
4FF#	4a 4d 4A<	.	.	8dd	.	czar-	.	.
.	.	.	.	8f#	.	-ny	.	.
4GG\	4gn 4e 4B	.	.	8cc#	.	w-	.	.
.	.	.	.	8b	.	-sik	.	.
=28	=28	=28	=28	=28	=28	=28	=28	=28
4AA	4g 4c# 4A	.	.	8a	.	bia-	.	.
.	.	.	.	8c#	.	-a	.	.
.	.	.	.	.	.	.	.	.
!LO:TX:B:t=Dal Segno.	!	!	!	!	!	!	!	!
4D 4DD	4f# 4d 4A	.	.	4d	.	pe!	.	.
4r	4a	.	.	4r	.	.	.	.
!LO:TX:b:t=	!LO:TX:a:t=	!	!	!LO:TX:a:t=	!	!	!	!
*	*	*	*	*	*	*v	*v	*
*	*	*	*	*	*v	*v	*
!!LO:LB:g=original
=29||	=29||	=29||	=29||	=29||	=29||	=29||
4AA	(8bbL	5	f	2.rdd	.	.
.	8aa	4	.	.	.	.
4g 4e 4A	8gg	5	.	.	.	.
.	8cc#	.	.	.	.	.
4AA#X	8ff# 8g	.	.	.	.	.
.	8eeJ)	.	.	.	.	.
=30	=30	=30	=30	=30	=30	=30
4BB	(>\8ddL	.	.	2.rdd	.	.
.	8f#	.	.	.	.	.
4d 4B	8cc#	.	.	.	.	.
.	8b	.	.	.	.	.
4r	8a 8fn	.	.	.	.	.
.	8g#XJ)	.	.	.	.	.
=31	=31	=31	=31	=31	=31	=31
4AA	8bL 8f#X	.	.	2.rdd	.	.
.	(8aT	.	.	.	.	.
4f# 4d 4A	8g#X	.	.	.	.	.
.	8a	.	.	.	.	.
4c# 4A	8ee 8gn	.	.	.	.	.
.	8ff#J 8a)	.	.	.	.	.
=32	=32	=32	=32	=32	=32	=32
*^	*	*	*	*	*	*
4rB	2D	4dd 4f#	.	.	2.r	.	.
4A	.	4r	.	.	.	.	.
4rB	4rC	4r	.	.	.	.	.
*v	*v	*	*	*	*	*	*
==	==	==	==	==	==	==
*-	*-	*-	*-	*-	*-	*-
!!title: @{OTL}; @{OPS} @{ONM} publisher: @{PPR}
!!!ENC: Antoni Szymaski
!!!END: 2019-08-26
!!!EED: Jdrzej Mr贸z
!!!EST: revision finished 2019-10-10
!!!system-decoration: (s1){(s2,s3)}
!!!RDF**kern: > = above
!!!RDF**kern: < = below
!!!rism-genre: liczny chopiec
!!!rism-key: D major
!!!rism-opus: op.  74, no. 8
!!!rism-title: Le beau gar莽on in D major op.  74, no. 8
!!!rism-permalink: https://opac.rism.info/search?id=300605194&View=rism
!!!rism-773a-OPR: 300605186
!!!rism-parent-permalink: https://opac.rism.info/search?id=300605186&View=rism
